apps/scalable/lmms.svg

<svg height="48" width="48" xmlns="http://www.w3.org/2000/svg" xmlns:xlink="http://www.w3.org/1999/xlink"><linearGradient gradientUnits="userSpaceOnUse" x1="0" x2="47" y1="23.5" y2="23.5"><stop offset="0" stop-color="#a9a3d4"/><stop offset=".47001833" stop-color="#87baff"/><stop offset="1" stop-color="#89ec85"/></linearGradient><linearGradient id="a"><stop offset="0" stop-color="#d3d3d3"/><stop offset="1" stop-color="#fcf9f9"/></linearGradient><linearGradient id="b" gradientUnits="userSpaceOnUse" x1="444.476797263103" x2="444.476797263103" y1="554.773340165294" y2="526.377694265294"><stop offset="0" stop-color="#0bac83"/><stop offset="1" stop-color="#10da96"/></linearGradient><linearGradient id="c" gradientUnits="userSpaceOnUse" x1="445.16275" x2="445.16275" xlink:href="#a" y1="555.63434" y2="525.72839"/><linearGradient id="d" gradientUnits="userSpaceOnUse" x1="444.94839" x2="444.68039" xlink:href="#a" y1="555.20557" y2="525.9964"/><g stroke-width="1.317422" transform="matrix(1.47909970662 0 0 1.47909970662 -633.945030959661 -775.741095750135)"><circle cx="444.82803" cy="540.69452" fill="url(#b)" r="14.197825"/><path d="m23.837891 12.578125-12 5.535156v14.769531l12.113281 12.115235a20.999999 20.999999 0 0 0  .048828.001953 20.999999 20.999999 0 0 0 20.753906-17.970703l-8.916015-8.916016v5.539063l-3.69336-3.69336-1.576172-.65039z" fill-opacity=".078431" transform="matrix(.67608694 0 0 .67608694 428.60196 524.46843)"/><path d="m444.82812 525.82031c-8.20662 0-14.87304 6.66837-14.87304 14.875s6.66642 14.87305 14.87304 14.87305c8.20663 0 14.87305-6.66642 14.87305-14.87305s-6.66642-14.875-14.87305-14.875zm0 1.35157c7.47593 0 13.52149 6.04751 13.52149 13.52343 0 7.47593-6.04556 13.52149-13.52149 13.52149-7.47592 0-13.52148-6.04556-13.52148-13.52149 0-7.47592 6.04556-13.52343 13.52148-13.52343z" fill="url(#c)"/><path d="m444.71806 532.97274-8.11304 3.74198v9.98529l2.49631 1.24566 3.12041-1.24566v-2.49632l-3.12041-1.24816v-4.99264l5.61673-2.31847 5.61672 2.31847v4.99264l-3.1204 1.24816v2.49632l3.1204 1.24566 2.49633-1.24566v-9.98529m-8.11305-3.74198" fill="url(#d)"/></g></svg>

<?xml version="1.0" encoding="UTF-8" standalone="no"?>
<!-- Created with Inkscape (http://www.inkscape.org/) -->

<svg
   xmlns:osb="http://www.openswatchbook.org/uri/2009/osb"
   xmlns:dc="http://purl.org/dc/elements/1.1/"
   xmlns:cc="http://creativecommons.org/ns#"
   xmlns:rdf="http://www.w3.org/1999/02/22-rdf-syntax-ns#"
   xmlns:svg="http://www.w3.org/2000/svg"
   xmlns="http://www.w3.org/2000/svg"
   xmlns:xlink="http://www.w3.org/1999/xlink"
   xmlns:sodipodi="http://sodipodi.sourceforge.net/DTD/sodipodi-0.dtd"
   xmlns:inkscape="http://www.inkscape.org/namespaces/inkscape"
   width="48"
   height="48"
   id="svg5453"
   version="1.1"
   inkscape:version="0.91 r13725"
   sodipodi:docname="lmms.svg">
  <sodipodi:namedview
     id="base"
     pagecolor="#5a5a5a"
     bordercolor="#666666"
     borderopacity="1.0"
     inkscape:pageopacity="0"
     inkscape:pageshadow="2"
     inkscape:zoom="8.92"
     inkscape:cx="5.6848302"
     inkscape:cy="21.346683"
     inkscape:document-units="px"
     inkscape:current-layer="layer1-8"
     showgrid="false"
     fit-margin-top="0"
     fit-margin-left="0"
     fit-margin-right="0"
     fit-margin-bottom="0"
     inkscape:window-width="1366"
     inkscape:window-height="630"
     inkscape:window-x="0"
     inkscape:window-y="36"
     inkscape:window-maximized="1"
     inkscape:showpageshadow="false"
     borderlayer="true"
     showguides="false"
     showborder="true">
    <sodipodi:guide
       id="guide4146"
       orientation="4,0"
       position="1.1650391e-05,47.999996" />
    <sodipodi:guide
       id="guide4148"
       orientation="0,48"
       position="1.1650391e-05,43.999996" />
    <sodipodi:guide
       id="guide4150"
       orientation="-4,0"
       position="48.000012,43.999996" />
    <sodipodi:guide
       id="guide4152"
       orientation="0,-48"
       position="48.000012,47.999996" />
    <sodipodi:guide
       id="guide4154"
       orientation="4,0"
       position="1.1650391e-05,4.0000264" />
    <sodipodi:guide
       id="guide4156"
       orientation="0,48"
       position="1.1650391e-05,2.6367188e-05" />
    <sodipodi:guide
       id="guide4158"
       orientation="-4,0"
       position="48.000012,2.6367188e-05" />
    <sodipodi:guide
       id="guide4160"
       orientation="0,-48"
       position="48.000012,4.0000264" />
    <sodipodi:guide
       id="guide4162"
       orientation="0,-4"
       position="48.000012,48.000026" />
    <sodipodi:guide
       id="guide4164"
       orientation="48,0"
       position="44.000012,48.000026" />
    <sodipodi:guide
       id="guide4166"
       orientation="0,4"
       position="44.000012,2.6367188e-05" />
    <sodipodi:guide
       id="guide4168"
       orientation="-48,0"
       position="48.000012,2.6367188e-05" />
    <sodipodi:guide
       id="guide4170"
       orientation="0,-4"
       position="4.0000422,48.000026" />
    <sodipodi:guide
       id="guide4172"
       orientation="48,0"
       position="4.2167969e-05,48.000026" />
    <sodipodi:guide
       id="guide4174"
       orientation="0,4"
       position="4.2167969e-05,2.6367188e-05" />
    <sodipodi:guide
       id="guide4176"
       orientation="-48,0"
       position="4.0000422,2.6367188e-05" />
    <sodipodi:guide
       id="guide4153"
       orientation="39.999969,0"
       position="20,30" />
    <sodipodi:guide
       id="guide4155"
       orientation="0,8"
       position="20.000012,4.0000264" />
    <sodipodi:guide
       id="guide4157"
       orientation="-39.999969,0"
       position="25,30" />
    <sodipodi:guide
       id="guide4159"
       orientation="0,-8"
       position="28.000012,43.999996" />
    <sodipodi:guide
       id="guide4342"
       orientation="5,0"
       position="22,11" />
  </sodipodi:namedview>
  <defs
     id="defs5455">
    <linearGradient
       id="linearGradient8311-06">
      <stop
         offset="0"
         style="stop-color:#a9a3d4;stop-opacity:1"
         id="stop8313-6" />
      <stop
         id="stop4462"
         style="stop-color:#87baff;stop-opacity:1"
         offset="0.47001833" />
      <stop
         offset="1"
         style="stop-color:#89ec85;stop-opacity:1"
         id="stop8315-2" />
    </linearGradient>
    <linearGradient
       inkscape:collect="always"
       xlink:href="#linearGradient8311-06"
       id="linearGradient4460"
       x1="0"
       y1="23.5"
       x2="47"
       y2="23.5"
       gradientUnits="userSpaceOnUse" />
    <linearGradient
       osb:paint="gradient"
       id="linearGradient4207">
      <stop
         id="stop3371"
         offset="0"
         style="stop-color:#3498db;stop-opacity:1;" />
      <stop
         id="stop3373"
         offset="1"
         style="stop-color:#3498db;stop-opacity:0;" />
    </linearGradient>
    <linearGradient
       id="linearGradient8467-5">
      <stop
         id="stop8469-7"
         style="stop-color:#d3d3d3;stop-opacity:1"
         offset="0" />
      <stop
         id="stop8471-0"
         style="stop-color:#fcf9f9;stop-opacity:1"
         offset="1" />
    </linearGradient>
    <linearGradient
       inkscape:collect="always"
       xlink:href="#linearGradient8467-7-3"
       id="linearGradient4740"
       x1="400.57144"
       y1="546.79797"
       x2="400.57144"
       y2="516.79797"
       gradientUnits="userSpaceOnUse"
       gradientTransform="matrix(0.94652153,0,0,0.94652153,65.327305,37.217289)" />
    <style
       type="text/css"
       id="current-color-scheme">.ColorScheme-Text {
        color:#31363b;
      }
      .ColorScheme-Background{
        color:#eff0f1;
      }
      .ColorScheme-ViewText {
        color:#31363b;
      }
      .ColorScheme-ViewBackground{
        color:#fcfcfc;
      }
      .ColorScheme-ViewHover {
        color:#3daee9;
      }
      .ColorScheme-ViewFocus{
        color:#3daee9;
      }
      .ColorScheme-ButtonText {
        color:#31363b;
      }
      .ColorScheme-ButtonBackground{
        color:#eff0f1;
      }
      .ColorScheme-ButtonHover {
        color:#3daee9;
      }
      .ColorScheme-ButtonFocus{
        color:#3daee9;
      }</style>
    <style
       type="text/css"
       id="current-color-scheme-8">.ColorScheme-Text {
        color:#31363b;
      }
      .ColorScheme-Background{
        color:#eff0f1;
      }
      .ColorScheme-ViewText {
        color:#31363b;
      }
      .ColorScheme-ViewBackground{
        color:#fcfcfc;
      }
      .ColorScheme-ViewHover {
        color:#3daee9;
      }
      .ColorScheme-ViewFocus{
        color:#3daee9;
      }
      .ColorScheme-ButtonText {
        color:#31363b;
      }
      .ColorScheme-ButtonBackground{
        color:#eff0f1;
      }
      .ColorScheme-ButtonHover {
        color:#3daee9;
      }
      .ColorScheme-ButtonFocus{
        color:#3daee9;
      }</style>
    <style
       type="text/css"
       id="current-color-scheme-7">.ColorScheme-Text {
        color:#31363b;
      }
      .ColorScheme-Background{
        color:#eff0f1;
      }
      .ColorScheme-ViewText {
        color:#31363b;
      }
      .ColorScheme-ViewBackground{
        color:#fcfcfc;
      }
      .ColorScheme-ViewHover {
        color:#3daee9;
      }
      .ColorScheme-ViewFocus{
        color:#3daee9;
      }
      .ColorScheme-ButtonText {
        color:#31363b;
      }
      .ColorScheme-ButtonBackground{
        color:#eff0f1;
      }
      .ColorScheme-ButtonHover {
        color:#3daee9;
      }
      .ColorScheme-ButtonFocus{
        color:#3daee9;
      }</style>
    <style
       type="text/css"
       id="current-color-scheme-0">.ColorScheme-Text {
        color:#31363b;
      }
      .ColorScheme-Background{
        color:#eff0f1;
      }
      .ColorScheme-ViewText {
        color:#31363b;
      }
      .ColorScheme-ViewBackground{
        color:#fcfcfc;
      }
      .ColorScheme-ViewHover {
        color:#3daee9;
      }
      .ColorScheme-ViewFocus{
        color:#3daee9;
      }
      .ColorScheme-ButtonText {
        color:#31363b;
      }
      .ColorScheme-ButtonBackground{
        color:#eff0f1;
      }
      .ColorScheme-ButtonHover {
        color:#3daee9;
      }
      .ColorScheme-ButtonFocus{
        color:#3daee9;
      }</style>
    <style
       type="text/css"
       id="current-color-scheme-8-6">.ColorScheme-Text {
        color:#31363b;
      }
      .ColorScheme-Background{
        color:#eff0f1;
      }
      .ColorScheme-ViewText {
        color:#31363b;
      }
      .ColorScheme-ViewBackground{
        color:#fcfcfc;
      }
      .ColorScheme-ViewHover {
        color:#3daee9;
      }
      .ColorScheme-ViewFocus{
        color:#3daee9;
      }
      .ColorScheme-ButtonText {
        color:#31363b;
      }
      .ColorScheme-ButtonBackground{
        color:#eff0f1;
      }
      .ColorScheme-ButtonHover {
        color:#3daee9;
      }
      .ColorScheme-ButtonFocus{
        color:#3daee9;
      }</style>
    <style
       type="text/css"
       id="current-color-scheme-7-6">.ColorScheme-Text {
        color:#31363b;
      }
      .ColorScheme-Background{
        color:#eff0f1;
      }
      .ColorScheme-ViewText {
        color:#31363b;
      }
      .ColorScheme-ViewBackground{
        color:#fcfcfc;
      }
      .ColorScheme-ViewHover {
        color:#3daee9;
      }
      .ColorScheme-ViewFocus{
        color:#3daee9;
      }
      .ColorScheme-ButtonText {
        color:#31363b;
      }
      .ColorScheme-ButtonBackground{
        color:#eff0f1;
      }
      .ColorScheme-ButtonHover {
        color:#3daee9;
      }
      .ColorScheme-ButtonFocus{
        color:#3daee9;
      }</style>
    <style
       type="text/css"
       id="current-color-scheme-4">.ColorScheme-Text {
        color:#31363b;
      }
      .ColorScheme-Background{
        color:#eff0f1;
      }
      .ColorScheme-ViewText {
        color:#31363b;
      }
      .ColorScheme-ViewBackground{
        color:#fcfcfc;
      }
      .ColorScheme-ViewHover {
        color:#3daee9;
      }
      .ColorScheme-ViewFocus{
        color:#3daee9;
      }
      .ColorScheme-ButtonText {
        color:#31363b;
      }
      .ColorScheme-ButtonBackground{
        color:#eff0f1;
      }
      .ColorScheme-ButtonHover {
        color:#3daee9;
      }
      .ColorScheme-ButtonFocus{
        color:#3daee9;
      }</style>
    <style
       type="text/css"
       id="current-color-scheme-8-0">.ColorScheme-Text {
        color:#31363b;
      }
      .ColorScheme-Background{
        color:#eff0f1;
      }
      .ColorScheme-ViewText {
        color:#31363b;
      }
      .ColorScheme-ViewBackground{
        color:#fcfcfc;
      }
      .ColorScheme-ViewHover {
        color:#3daee9;
      }
      .ColorScheme-ViewFocus{
        color:#3daee9;
      }
      .ColorScheme-ButtonText {
        color:#31363b;
      }
      .ColorScheme-ButtonBackground{
        color:#eff0f1;
      }
      .ColorScheme-ButtonHover {
        color:#3daee9;
      }
      .ColorScheme-ButtonFocus{
        color:#3daee9;
      }</style>
    <style
       type="text/css"
       id="current-color-scheme-7-7">.ColorScheme-Text {
        color:#31363b;
      }
      .ColorScheme-Background{
        color:#eff0f1;
      }
      .ColorScheme-ViewText {
        color:#31363b;
      }
      .ColorScheme-ViewBackground{
        color:#fcfcfc;
      }
      .ColorScheme-ViewHover {
        color:#3daee9;
      }
      .ColorScheme-ViewFocus{
        color:#3daee9;
      }
      .ColorScheme-ButtonText {
        color:#31363b;
      }
      .ColorScheme-ButtonBackground{
        color:#eff0f1;
      }
      .ColorScheme-ButtonHover {
        color:#3daee9;
      }
      .ColorScheme-ButtonFocus{
        color:#3daee9;
      }</style>
    <linearGradient
       id="linearGradient8467-7-3">
      <stop
         id="stop8469-4-0"
         style="stop-color:#0bac83;stop-opacity:1"
         offset="0" />
      <stop
         id="stop8471-7-5"
         style="stop-color:#10da96;stop-opacity:1"
         offset="1" />
    </linearGradient>
    <linearGradient
       id="linearGradient3764"
       x1="1"
       x2="47"
       gradientUnits="userSpaceOnUse"
       gradientTransform="matrix(0,-0.67608694,0.67608694,0,375.96032,555.37591)">
      <stop
         style="stop-color:#3f3f3f;stop-opacity:1"
         id="stop4193" />
      <stop
         offset="1"
         style="stop-color:#494949;stop-opacity:1"
         id="stop4195" />
    </linearGradient>
    <linearGradient
       gradientUnits="userSpaceOnUse"
       y2="525.72839"
       x2="445.16275"
       y1="555.63434"
       x1="445.16275"
       id="linearGradient4324"
       xlink:href="#linearGradient8467-5"
       inkscape:collect="always" />
    <linearGradient
       gradientUnits="userSpaceOnUse"
       y2="525.9964"
       x2="444.68039"
       y1="555.20557"
       x1="444.94839"
       id="linearGradient4326"
       xlink:href="#linearGradient8467-5"
       inkscape:collect="always" />
  </defs>
  <metadata
     id="metadata5458">
    <rdf:RDF>
      <cc:Work
         rdf:about="">
        <dc:format>image/svg+xml</dc:format>
        <dc:type
           rdf:resource="http://purl.org/dc/dcmitype/StillImage" />
        <dc:title></dc:title>
      </cc:Work>
    </rdf:RDF>
  </metadata>
  <g
     transform="translate(-384.57143,-499.798)"
     id="layer1"
     inkscape:groupmode="layer"
     inkscape:label="Layer 1">
    <g
       inkscape:label="Layer 1"
       id="layer1-4"
       transform="translate(392.24401,-502.51656)">
      <g
         style="stroke-width:1.31742239;stroke-miterlimit:4;stroke-dasharray:none"
         id="g4413"
         transform="matrix(1.138587,0,0,1.138587,-3.4562036,-142.80276)">
        <g
           transform="matrix(1.0539376,0,0,1.0539376,-0.91298719,-55.411661)"
           id="g4312">
          <g
             inkscape:label="Layer 1"
             id="layer1-0"
             transform="matrix(0.83333358,0,0,0.83333358,-408.28112,587.90224)">
            <g
               inkscape:label="Layer 1"
               id="layer1-8"
               transform="matrix(1.4790997,0,0,1.4790997,-147.18469,-273.01526)">
              <circle
                 style="opacity:1;fill:url(#linearGradient4740);fill-opacity:1;stroke:none;stroke-width:1.5;stroke-linecap:round;stroke-linejoin:round;stroke-miterlimit:4;stroke-dasharray:none;stroke-opacity:1"
                 id="path4175"
                 cx="444.82803"
                 cy="540.69452"
                 r="14.197825" />
              <path
                 style="fill:#000000;fill-opacity:0.07843137;fill-rule:nonzero;stroke:none"
                 d="M 23.837891 12.578125 L 11.837891 18.113281 L 11.837891 32.882812 L 23.951172 44.998047 A 20.999999 20.999999 0 0 0 24 45 A 20.999999 20.999999 0 0 0 44.753906 27.029297 L 35.837891 18.113281 L 35.837891 23.652344 L 32.144531 19.958984 L 30.568359 19.308594 L 23.837891 12.578125 z "
                 transform="matrix(0.67608694,0,0,0.67608694,428.60196,524.46843)"
                 id="path4394" />
              <path
                 inkscape:connector-curvature="0"
                 id="circle4306"
                 d="m 444.82812,525.82031 c -8.20662,0 -14.87304,6.66837 -14.87304,14.875 0,8.20663 6.66642,14.87305 14.87304,14.87305 8.20663,0 14.87305,-6.66642 14.87305,-14.87305 0,-8.20663 -6.66642,-14.875 -14.87305,-14.875 z m 0,1.35157 c 7.47593,0 13.52149,6.04751 13.52149,13.52343 0,7.47593 -6.04556,13.52149 -13.52149,13.52149 -7.47592,0 -13.52148,-6.04556 -13.52148,-13.52149 0,-7.47592 6.04556,-13.52343 13.52148,-13.52343 z"
                 style="color:#000000;font-style:normal;font-variant:normal;font-weight:normal;font-stretch:normal;font-size:medium;line-height:normal;font-family:sans-serif;text-indent:0;text-align:start;text-decoration:none;text-decoration-line:none;text-decoration-style:solid;text-decoration-color:#000000;letter-spacing:normal;word-spacing:normal;text-transform:none;direction:ltr;block-progression:tb;writing-mode:lr-tb;baseline-shift:baseline;text-anchor:start;white-space:normal;clip-rule:nonzero;display:inline;overflow:visible;visibility:visible;opacity:1;isolation:auto;mix-blend-mode:normal;color-interpolation:sRGB;color-interpolation-filters:linearRGB;solid-color:#000000;solid-opacity:1;fill:url(#linearGradient4324);fill-opacity:1.0;fill-rule:nonzero;stroke:none;stroke-width:1.35205269;stroke-linecap:round;stroke-linejoin:round;stroke-miterlimit:4;stroke-dasharray:none;stroke-dashoffset:0;stroke-opacity:1;color-rendering:auto;image-rendering:auto;shape-rendering:auto;text-rendering:auto;enable-background:accumulate" />
              <path
                 id="path4227"
                 style="opacity:1;fill:url(#linearGradient4326);fill-opacity:1;fill-rule:nonzero;stroke:none"
                 d="m 444.71806,532.97274 -8.11304,3.74198 0,9.98529 2.49631,1.24566 3.12041,-1.24566 0,-2.49632 -3.12041,-1.24816 0,-4.99264 5.61673,-2.31847 5.61672,2.31847 0,4.99264 -3.1204,1.24816 0,2.49632 3.1204,1.24566 2.49633,-1.24566 0,-9.98529 m -8.11305,-3.74198"
                 inkscape:connector-curvature="0" />
            </g>
          </g>
        </g>
      </g>
      <g
         id="g3"
         transform="matrix(0.48796879,0,0,0.48796879,21.356721,1026.8977)"
         style="fill:url(#linearGradient4460);fill-opacity:1" />
    </g>
  </g>
</svg>
